X: 1
T: the Auld Wife Ayont the Fire
O: c.1726
O: 18th century Scottish
B: John and William Neal "A Choice Collection of Country Dances"
S: Jerry Holland tunebook
S: Arr. T. Traub 11-03-02
M: 4/4
L: 1/8
K: G
c |:\
"G"B2 A>G "C"E<E [c2E2] | "G"TB2 A>G G>B g>d |\
"G"B2 A>G "C"E<E [c2E2] |1 "D"d>B A<B "G" G2 "D"G/A/B/c/ :|2 "D"d>B A<B "G"G2 G ||
|: c |\
"G"B<d Td>B "Am"c>d Tc>A | "G"B<d d>B d/e/f g>d |\
"G"B<d Td>B "C"c>d Tc>A | "D"d>B A<B "G"G2 G :|
